X: 42781
T: White Swan In The Window, The
R: jig
M: 6/8
K: Amixolydian
|:ABA Bce|cde cBA|ABA gAa|edB BAG|ABA Bce|
cde cBA|1 ~B2A GED|G3 GAB:|2 ~B2A GAB|A3 ABA||
GBd g2B|Ace a2A|age Bce|cde cBA|
GBd g2B|Ace aAg|edB BAG|A3 ABA|
GBd g2B|Ace a2A|age edB|BAB GED|
~E3 EDE|GAB AB/c/d|ege dBG|A3 A3||

